img/popup/01.svg

<svg width="27" height="21" viewBox="0 0 27 21" fill="none" xmlns="http://www.w3.org/2000/svg">
<path d="M25.8574 9.51869L26.7339 8.78271L13.5374 0L0.0973913 8.53738L2.14261 10.2056L0 8.53738L0.0973913 9.81308L13.8296 21L26.88 9.76402L26.8313 8.78271L25.8574 9.51869Z" fill="black"/>
<path d="M23.4229 11.1378C22.3029 11.9229 21.2316 12.757 20.1116 13.542C18.9916 14.3271 17.9203 15.1612 16.849 15.9953L13.7324 17.3691L10.4698 15.9462C9.34983 15.1121 8.18114 14.278 7.06113 13.4439C5.94113 12.6098 4.77244 11.7757 3.60374 10.9906C2.43505 10.1565 1.26635 9.3224 0.0976562 8.53735C1.21766 9.42053 2.33766 10.3037 3.40896 11.1378C4.52896 12.021 5.64896 12.8551 6.76896 13.7383C7.88896 14.6215 9.00896 15.4556 10.129 16.2897L12.9533 18.743L13.7811 21L14.3655 18.743L17.0437 16.3388C18.115 15.5046 19.1864 14.6705 20.2577 13.8364C21.329 13.0023 22.4003 12.1682 23.4716 11.3341C24.5429 10.5 25.6142 9.61679 26.6368 8.78268C25.6142 9.56773 24.5429 10.3528 23.4229 11.1378Z" fill="white"/>
</svg>

<svg width="27" height="21" fill="none" xmlns="http://www.w3.org/2000/svg"><path d="M25.857 9.519l.877-.736L13.537 0 .097 8.537l2.046 1.669L0 8.537l.097 1.276L13.83 21 26.88 9.764l-.049-.981-.974.736z" fill="#000"/><path d="M23.423 11.138c-1.12.785-2.191 1.619-3.311 2.404-1.12.785-2.192 1.62-3.263 2.453l-3.117 1.374-3.262-1.423c-1.12-.834-2.289-1.668-3.409-2.502a87.925 87.925 0 00-3.457-2.453A151.871 151.871 0 00.098 8.537c1.12.884 2.24 1.767 3.311 2.6 1.12.884 2.24 1.718 3.36 2.601 1.12.883 2.24 1.718 3.36 2.552l2.824 2.453.828 2.257.585-2.257 2.678-2.404 3.214-2.503 3.214-2.502c1.07-.834 2.142-1.717 3.165-2.551a91.846 91.846 0 01-3.214 2.355z" fill="#fff"/></svg>
